static/svg/icons/social/icon-facebook.svg

<?xml version="1.0" encoding="UTF-8"?>
<svg width="24px" height="24px" viewBox="0 0 24 24" version="1.1" xmlns="http://www.w3.org/2000/svg" xmlns:xlink="http://www.w3.org/1999/xlink">
    <!-- Generator: Sketch 57.1 (83088) - https://sketch.com -->
    <title>icon-facebook</title>
    <desc>Created with Sketch.</desc>
    <g id="Website-CakeDefi.com" stroke="none" stroke-width="1" fill="none" fill-rule="evenodd">
        <g id="Cake-website-HD" transform="translate(-153.000000, -3992.000000)">
            <g id="Footer" transform="translate(0.000000, 3444.000000)">
                <g id="icon-facebook" transform="translate(149.000000, 544.000000)">
                    <rect id="Rectangle" x="0" y="0" width="32" height="32"></rect>
                    <path d="M5.32461439,28 C4.59283473,28 4,27.4067893 4,26.6752946 L4,5.32460439 C4,4.59292473 4.59292973,4 5.32461439,4 L26.6754546,4 C27.4069543,4 27.999979,4.59292473 27.999979,5.32460439 L27.999979,26.6752946 C27.999979,27.4068843 27.4068643,28 26.6754546,28 L20.5596074,28 L20.5596074,18.7058983 L23.679216,18.7058983 L24.1463328,15.0838149 L20.5596094,15.0838149 L20.5596094,12.771346 C20.5596094,11.7226715 20.8508128,11.0080318 22.3546036,11.0080318 L24.2726127,11.0071933 L24.2726127,7.76757477 C23.9409004,7.72343329 22.8023484,7.62481434 21.477734,7.62481434 C18.7123753,7.62481434 16.8191361,9.31279356 16.8191361,12.4126321 L16.8191361,15.0838209 L13.6915226,15.0838209 L13.6915226,18.7059043 L16.8191361,18.7059043 L16.8191361,28 L5.32461439,28 Z" id="Path" fill="#FFFFFF"></path>
                </g>
            </g>
        </g>
    </g>
</svg>

<svg width="24" height="24" xmlns="http://www.w3.org/2000/svg"><g transform="translate(-4 -4)" fill="none" fill-rule="evenodd"><path d="M0 0H32V32H0z"/><path d="M5.325 28A1.325 1.325 0 0 1 4 26.675V5.325C4 4.593 4.593 4 5.325 4h21.35C27.407 4 28 4.593 28 5.325v21.35c0 .732-.593 1.325-1.325 1.325H20.56v-9.294h3.12l.466-3.622H20.56V12.77c0-1.048.29-1.763 1.795-1.763h1.918v-3.24c-.332-.045-1.47-.143-2.795-.143-2.766 0-4.659 1.688-4.659 4.788v2.67h-3.127v3.623h3.127V28H5.325z" fill="#FFF"/></g></svg>
